X:1
T: The Highlanders Humour
N:
C:
S:
A:
O:
R:
M:4/4
K:D
I:speed 200
%W: A1
% voice 1 (1 lines, 32 notes)
K:D
M:4/4
L:1/16
d12 a4 |f4 a4 e4 g4 |d12 e2 f2 |g2 f2 e2 d2 c4 e4 |d12 a4 |f4 a4 e4 g4 |d4 e2 f2 g2 f2 e2 d2 |c4 e4 A4 c4 |
%W: A2
% voice 1 (1 lines, 32 notes)
d12 a4 |f4 a4 e4 g4 |d12 e2 f2 |g2 f2 e2 d2 c4 e4 |d12 a4 |f4 a4 e4 g4 |d4 e2 f2 g2 f2 e2 d2 |c4 e4 A4 G4 |
%W: B1
% voice 1 (1 lines, 40 notes)
F2 A2 d2 A2 F2 A2 d2 A2 |F2 A2 d2 A2 F2 A2 d2 A2 |G2 B2 d2 B2 G2 B2 d2 B2 |G2 B2 d2 B2 G2 B2 d2 B2 |A2 c2 e2 c2 A2 c2 e2 c2 |
%W:
% voice 1 (1 lines, 32 notes)
A2 c2 e2 c2 A2 c2 e2 c2 |d2 f2 a2 f2 d2 f2 a2 f2 |d2 f2 a2 f2 d2 f2 a2 f2 |g6 f2 e4 d4 |c4 e4 A4 G4 |
%W: B2
% voice 1 (1 lines, 40 notes)
F2 A2 d2 A2 F2 A2 d2 A2 |F2 A2 d2 A2 F2 A2 d2 A2 |G2 B2 d2 B2 G2 B2 d2 B2 |G2 B2 d2 B2 G2 B2 d2 B2 |A2 c2 e2 c2 A2 c2 e2 c2 |
%W:                                                                                         LAST TIME
% voice 1 (1 lines, 35 notes)
A2 c2 e2 c2 A2 c2 e2 c2 |d2 f2 a2 f2 d2 f2 a2 f2 |d2 f2 a2 f2 d2 f2 a2 f2 |g6 f2 e4 d4 |c4 e4 A4 c4 |c4 e4 d8 ||
